X: 29306
T: New Tilth, The
R: waltz
M: 3/4
K: Dminor
A2|:d3^c d2|e2 f2d2|efe^c A2|- A2 A2G2|F3E F2|G2 A2^c2|
[1 ^c2d2 d2|-d4A2:|2 ^c2d2d2|-d4g2|:fgfe f2|d2 e2f2|
efed ^c2|zB AGFE|FEFd E2|A2 ^cAce|1 e2d2 d2|-d4g2:|
[2 e2d2 d2|-d2|:f2g2|a2f2 a2|f2 abaf|g2e2g2|e2 agfe|
[1 f2d2f2|d2 e2d2|^cdec A2|-A2:|2 f2d2e2|f2 e2d2|^cdec d2|-d2||

